X:26
T:Cuz's Polka
R:polka
M:2/4
L:1/8
K:G maj
|: E>F GA | Be B2 | AF DF | EF D2 |
| E>F GA | Be B2 | AF DF | E2 E2 :|
|: e2 B2 | ee B2 | AF DF | EF D2 |
|1 e2 B2 | ee B2 | AF DF | DF E2 :|
|2 E>F GA | Be B2 | AF DF | E2 E2 |

